X:1
T:Title
%%score 1 2 3 4
L:1/8
M:6/4
K:C
V:1 treble nm="Part_1"
V:2 treble nm="Part_2"
V:3 treble-8 nm="Part_3"
V:4 treble-8 nm="Part_4"
V:1
 A12- | A8 G2 F2 | E8 A4 | G8 E4 | C2 E4 D2 C4 | D6 z2 z2 G2 | A4 _B4 A2 F2 | E2 G4 F4 E2 | %8
 F6 A2 A2 A2 | c4 _B2 A4 F2 | E2 c2 B2 A2 ^G4 | A12 | z12 | z12 | z12 | z12 | z12 | z12 | z12 | %19
 z12 | z12 | z12 | z12 | z12 | F12 | A8 A4 | _B4 A2 G4 F2 | E4 F2 E4 D2 | C12 | D6 A4 G2 | %30
 F2 D4 F4 E2- | E2 C4 D4 C2 | D6 z6 | A6- A4 F2 | E2 C2 DE F4 E2 | F2 G A2 _B A2 G F2 G | E12 | %37
 A6 A6 | _B6 B2 B4 | A6 z6 | E4 F2 E2 F2 D2 | E12 | F4 A4 c4 | A2 B4 A4 ^G2 | A6 z6 | E6 E4 E2 | %46
 F2 E2 D4 E2 C2 | !fermata!D12 |[M:3/2] E8 F2 G2 | A12 | _B4 A2 B4 c2 | A8 c2 _B2 | A4 _B2 A4 G2 | %53
 F12 | G8 _B4- | B2 A4 G4 F2 | G12 | z12 | C4 D8 | E8 F2 G2 | A12- | A12 | F12 | E8 A2 G2 | %64
 E4 G2 F2 E4 | D4 z4 z4 | G8 E4 | A4 G4 F4 | E12- | E12 | D4 C8 | D12 |] %72
V:2
 z12 | z12 | z12 | z12 | z12 | z12 | z12 | z12 | z12 | z12 | z12 | z12 | A12- | A8 G2 F2 | E8 A4 | %15
 G8 E4 | C2 E4 D2 C4 | D6 z2 z2 G2 | A4 _B4 A2 F2 | E2 G4 F4 E2 | F6 A2 A2 A2 | c4 _B2 A4 F2 | %22
 E2 c2 B2 A2 ^G4 | A6 z6 | A6 A4 A2 | F2 G2 A4 F4 | D2 E2 F2 G2 F2 ED | C4 D2 E4 FG | %28
 A4 A2 A2 A2 A2 | A6 D4 D2 | A8 _B4 | A2 E2 FG A2 G4 | A12 | z12 | A6 _B4 B2 | c4 _B4 A4 | G6 G6 | %37
 E6 E6 | z12 | C4 C4 C4 | A4 _B2 c2 A4 | G12 | F4 F4 A4 | G2 F2 E4 D4 | E8 A4 | c2 _B2 A4 F2 G2 | %46
 A8 G4 | !fermata!A12 |[M:3/2] A4 A4 A4 | E8 F4 | G6 D4 E2 | F4 G2 F2 E2 D2 | C4 z4 F4 | %53
 A4 c4 A2 F2 | E4 C4 D4 | E4 G4 A4 | B12- | B12 | A4 A4 D4 | C8 C4 | D12 | z12 | A8 _B4 | %63
 c6 A2 c2 A2 | G12 | F8 A4 | _B8 A4- | A2 D4 E4 F2 | G12- | G12 | F4 G8 | A12 |] %72
V:3
 D12- | D12 | A12 | E12- | E12 | D12 | d8 A4 | c4 A4 G4 | F12- | F12 | c6 B6 | A12 | D12- | D12 | %14
 A12 | E12- | E12 | D12 | d8 A4 | c4 A4 G4 | F12- | F12 | c6 B6 | A12 | F12- | F12 | G12 | A12- | %28
 A12 | D12 | F8 G4 | A4 F4 E4 | D12- | D12 | A6 G6 | F12 | c12- | c12 | d12 | A12- | A12 | c12 | %42
 d8 A4 | d4 c4 B4 | A12- | A12 | D6 E6 | D12 |[M:3/2] A12- | A12 | G12 | F12- | F12 | d12 | e8 d4 | %55
 c4 _B4 A4 | G12- | G12 | A4 F8 | E12 | D12- | D12 | d12 | c12- | c12 | d12 | G8 A4 | F4 E4 D4 | %68
 C12- | C12 | D4 E8 | D12 |] %72
V:4
 d12- | d12 | c6- c4 d2 | e4 c4 B2 A2 | G12 | A12 | D12 | C4 c2 c2 B4 | c12- | c12 | A4 e4 d4 | %11
 e12 | d12- | d12 | c6- c4 d2 | e4 c4 B2 A2 | G12 | A12 | D12 | C4 c2 c2 B4 | c12- | c12 | %22
 A4 e4 d4 | e12 | A12 | c12 | _B12 | c12 | F12 | A12 | z12 | A8 G4 | F6 A6 | d12 | c8 _B4 | c12 | %36
 z12 | A12 | G12 | c12- | c12 | C12 | z12 | F4 c4 d4 | c12- | c12 | d2 c2 A4 G4 | !fermata!A12 | %48
[M:3/2] c12- | c12 | d12 | A12- | A12 | D12 | C8 G4 | A4 d4 c4 | d12- | d12 | z12 | G12 | A12- | %61
 A12 | D12 | A12 | E12 | D12 | d8 c4 | d6 c4 B2 | c12- | c12 | A4 G8 | A12 |] %72

